;FLAVOR:Marlin
;TIME:1014
;Filament used: 1.1477m
;Layer height: 0.2
;MINX:-21.655
;MINY:-18.05
;MINZ:0.2
;MAXX:21.656
;MAXY:18.05
;MAXZ:23
;TARGET_MACHINE.NAME:Unknown
;Generated with Cura_SteamEngine 5.6.0
M82 ;absolute extrusion mode
G21 ; millimeter units
G90 ; absolute coordinates
M82 ; E absolute
M140 S65
M104 S220.0
M190 S65
M109 S220.0
G28 ; home axis
M420 S1 ; enable mesh leveling
; Lower nozzle and move to start position
G1 Z150
G1 X-130 Y0 Z0.4 F3000
; Extrude about 40 mm by printing a 90 degree arc
G3 X0 Y-130 I130 Z0.3 E40 F2700
; Retract and move nozzle up
G92 E0
G1 E-1.5 F1800
G0 Z0.5
G1 E0 F300

G92 E0
G92 E0
G1 F2400 E-6.5
;LAYER_COUNT:115
;LAYER:0
M107
G1 F3000 Z0.5
G0 X-21.59 Y5.823 Z0.5
;TYPE:SKIRT
G1 F3000 Z0.2
G1 F2400 E0
G1 F1800 X-21.65 Y-9.794 E0.51943
G1 X-21.166 Y-12.153 E0.59952
G1 X-19.914 Y-14.34 E0.68334
G1 X-19.138 Y-15.332 E0.72523
G1 X-17.557 Y-16.605 E0.79274
G1 X-15.287 Y-17.737 E0.87711
G1 X-13.578 Y-17.986 E0.93455
G1 X13.399 Y-18.05 E1.83181
G1 X15.753 Y-17.566 E1.91174
G1 X17.94 Y-16.314 E1.99556
G1 X18.932 Y-15.538 E2.03745
G1 X20.205 Y-13.957 E2.10496
G1 X21.337 Y-11.686 E2.18936
G1 X21.59 Y-9.922 E2.24863
G1 X21.65 Y5.674 E2.76736
G1 X21.483 Y6.473 E2.79451
G1 X21.621 Y7.542 E2.83036
G1 X21.656 Y9.753 E2.9039
G1 X21.165 Y12.16 E2.98561
G1 X20.083 Y14.086 E3.05909
G1 X19.127 Y15.338 E3.11148
G1 X17.558 Y16.607 E3.1786
G1 X15.288 Y17.737 E3.26293
G1 X13.578 Y17.986 E3.32041
G1 X-13.398 Y18.05 E4.21764
G1 X-15.748 Y17.567 E4.29743
G1 X-17.731 Y16.454 E4.37306
G1 X-18.931 Y15.537 E4.4233
G1 X-20.205 Y13.951 E4.49096
G1 X-21.351 Y11.651 E4.57643
G1 X-21.621 Y9.556 E4.64668
G1 X-21.655 Y7.322 E4.72099
G1 X-21.487 Y6.518 E4.74831
G1 X-21.59 Y5.823 E4.77168
G0 F3000 X-21.194 Y5.765
G1 F1800 X-21.25 Y-9.754 E5.28785
G1 X-20.787 Y-12.009 E5.36441
G1 X-19.599 Y-14.093 E5.4442
G1 X-18.849 Y-15.051 E5.48467
G1 X-17.341 Y-16.266 E5.54908
G1 X-15.167 Y-17.35 E5.62987
G1 X-13.52 Y-17.59 E5.68523
G1 X13.357 Y-17.65 E6.57917
G1 X15.609 Y-17.187 E6.65564
G1 X17.693 Y-15.999 E6.73542
G1 X18.651 Y-15.249 E6.77589
G1 X19.866 Y-13.741 E6.8403
G1 X20.95 Y-11.567 E6.9211
G1 X21.19 Y-9.92 E6.97645
G1 X21.25 Y5.631 E7.49369
G1 X21.077 Y6.458 E7.52179
G1 X21.221 Y7.548 E7.55836
G1 X21.255 Y9.716 E7.63047
G1 X20.786 Y12.018 E7.70861
G1 X19.734 Y13.89 E7.78003
G1 X18.839 Y15.057 E7.82895
G1 X17.341 Y16.268 E7.89302
G1 X15.168 Y17.35 E7.97375
G1 X13.52 Y17.59 E8.02914
G1 X-13.357 Y17.65 E8.92308
G1 X-15.606 Y17.188 E8.99944
G1 X-17.535 Y16.105 E9.07302
G1 X-18.647 Y15.252 E9.11964
G1 X-19.868 Y13.732 E9.18448
G1 X-20.962 Y11.535 E9.26611
G1 X-21.221 Y9.55 E9.33269
G1 X-21.254 Y7.362 E9.40548
G1 X-21.081 Y6.531 E9.43371
G1 X-21.194 Y5.765 E9.45946
G0 F3000 X-20.798 Y5.706
G1 F1800 X-20.85 Y-9.713 E9.9723
G1 X-20.407 Y-11.867 E10.04544
G1 X-19.284 Y-13.847 E10.12115
G1 X-18.565 Y-14.766 E10.15996
G1 X-17.121 Y-15.929 E10.22163
G1 X-15.047 Y-16.963 E10.29871
G1 X-13.462 Y-17.194 E10.35198
G1 X13.315 Y-17.25 E11.24259
G1 X15.467 Y-16.807 E11.31567
G1 X17.447 Y-15.684 E11.39138
G1 X18.366 Y-14.965 E11.43019
G1 X19.529 Y-13.521 E11.49186
G1 X20.563 Y-11.447 E11.56893
G1 X20.794 Y-9.862 E11.62221
G1 X20.85 Y5.593 E12.13625
G1 X20.671 Y6.446 E12.16524
G1 X20.824 Y7.601 E12.20399
G1 X20.854 Y9.679 E12.27311
G1 X20.407 Y11.876 E12.34768
G1 X19.385 Y13.694 E12.41705
G1 X18.55 Y14.777 E12.46253
G1 X17.124 Y15.929 E12.5235
G1 X15.048 Y16.963 E12.60064
G1 X13.462 Y17.194 E12.65395
G1 X-13.315 Y17.25 E13.54456
G1 X-15.464 Y16.808 E13.61753
G1 X-17.339 Y15.756 E13.68904
G1 X-18.364 Y14.965 E13.7321
G1 X-19.531 Y13.513 E13.79406
G1 X-20.573 Y11.418 E13.87188
G1 X-20.821 Y9.544 E13.93475
G1 X-20.853 Y7.402 E14.006
G1 X-20.674 Y6.543 E14.03519
G1 X-20.798 Y5.706 E14.06333
G0 F3000 X-20.402 Y5.647
G1 F1800 X-20.45 Y-9.672 E14.57285
G1 X-20.027 Y-11.726 E14.6426
G1 X-18.969 Y-13.6 E14.71417
G1 X-18.278 Y-14.483 E14.75146
G1 X-16.901 Y-15.592 E14.81027
G1 X-14.927 Y-16.576 E14.88363
G1 X-13.404 Y-16.798 E14.93482
G1 X13.273 Y-16.85 E15.8221
G1 X15.326 Y-16.427 E15.89182
G1 X17.2 Y-15.369 E15.9634
G1 X18.083 Y-14.678 E16.00069
G1 X19.192 Y-13.301 E16.0595
G1 X20.176 Y-11.327 E16.13286
G1 X20.398 Y-9.804 E16.18405
G1 X20.45 Y5.555 E16.69489
G1 X20.266 Y6.431 E16.72466
G1 X20.424 Y7.607 E16.76413
G1 X20.453 Y9.641 E16.83179
G1 X20.027 Y11.736 E16.90289
G1 X19.068 Y13.45 E16.96822
G1 X18.261 Y14.497 E17.01218
G1 X16.907 Y15.59 E17.07006
G1 X14.928 Y16.576 E17.1436
G1 X13.404 Y16.798 E17.19482
G1 X-13.273 Y16.85 E18.08211
G1 X-15.322 Y16.428 E18.15169
G1 X-17.143 Y15.407 E18.22112
G1 X-18.08 Y14.679 E18.26059
G1 X-19.194 Y13.294 E18.31971
G1 X-20.184 Y11.302 E18.39369
G1 X-20.424 Y9.491 E18.45445
G1 X-20.452 Y7.442 E18.52261
G1 X-20.267 Y6.555 E18.55275
G1 X-20.402 Y5.647 E18.58328
G0 F3000 X-20.002 Y5.646
G1 F1800 X-20.05 Y-9.631 E19.09139
G1 X-19.648 Y-11.584 E19.15771
G1 X-18.654 Y-13.353 E19.2252
G1 X-17.991 Y-14.2 E19.26098
G1 X-16.681 Y-15.255 E19.31692
G1 X-14.807 Y-16.189 E19.38656
G1 X-13.346 Y-16.402 E19.43567
G1 X13.231 Y-16.45 E20.31963
G1 X15.184 Y-16.048 E20.38595
G1 X16.953 Y-15.054 E20.45344
G1 X17.8 Y-14.391 E20.48921
G1 X18.855 Y-13.081 E20.54515
G1 X19.789 Y-11.207 E20.6148
G1 X20.002 Y-9.746 E20.6639
G1 X20.05 Y5.516 E21.17152
G1 X19.857 Y6.434 E21.20272
G1 X19.885 Y6.559 E21.20698
G1 X20.024 Y7.613 E21.24234
G1 X20.052 Y9.603 E21.30854
G1 X19.647 Y11.595 E21.37615
G1 X18.751 Y13.206 E21.43746
G1 X17.972 Y14.217 E21.47991
G1 X16.69 Y15.251 E21.53469
G1 X14.808 Y16.189 E21.60463
G1 X13.346 Y16.402 E21.65377
G1 X-13.231 Y16.45 E22.53772
G1 X-15.182 Y16.048 E22.60398
G1 X-16.897 Y15.091 E22.6693
G1 X-17.797 Y14.391 E22.70722
G1 X-18.857 Y13.075 E22.76342
G1 X-19.796 Y11.185 E22.83362
G1 X-20.027 Y9.439 E22.89219
G1 X-20.051 Y7.482 E22.95729
G1 X-19.861 Y6.568 E22.98834
G1 X-20.002 Y5.646 E23.01936
G0 F3000 X-19.606 Y5.588
G1 F1800 X-19.65 Y-9.589 E23.52415
G1 X-19.268 Y-11.444 E23.58714
G1 X-18.339 Y-13.106 E23.65047
G1 X-17.702 Y-13.919 E23.68482
G1 X-16.465 Y-14.916 E23.73767
G1 X-14.687 Y-15.802 E23.80374
G1 X-13.288 Y-16.006 E23.85076
G1 X13.189 Y-16.05 E24.73139
G1 X15.044 Y-15.668 E24.79438
G1 X16.706 Y-14.739 E24.85771
G1 X17.519 Y-14.102 E24.89206
G1 X18.516 Y-12.865 E24.94491
G1 X19.402 Y-11.087 E25.01098
G1 X19.606 Y-9.688 E25.058
G1 X19.65 Y5.477 E25.56239
G1 X19.447 Y6.442 E25.59519
G1 X19.488 Y6.611 E25.60098
G1 X19.627 Y7.665 E25.63634
G1 X19.651 Y9.565 E25.69954
G1 X19.268 Y11.453 E25.76361
G1 X18.401 Y13.011 E25.82291
G1 X17.684 Y13.936 E25.86184
G1 X16.473 Y14.912 E25.91357
G1 X14.688 Y15.802 E25.97991
G1 X13.288 Y16.006 E26.02697
G1 X-13.189 Y16.05 E26.90759
G1 X-15.041 Y15.668 E26.97049
G1 X-16.651 Y14.775 E27.03172
G1 X-17.517 Y14.101 E27.06822
G1 X-18.518 Y12.859 E27.12128
G1 X-19.407 Y11.069 E27.18775
G1 X-19.63 Y9.386 E27.24422
G1 X-19.65 Y7.522 E27.30622
G1 X-19.451 Y6.56 E27.33889
G1 X-19.483 Y6.429 E27.34338
G1 X-19.606 Y5.588 E27.37165
G0 F3000 X-19.21 Y5.53
G1 F1800 X-19.25 Y-9.547 E27.87311
G1 X-18.888 Y-11.303 E27.93274
G1 X-18.024 Y-12.859 E27.99194
G1 X-17.413 Y-13.638 E28.02487
G1 X-16.248 Y-14.577 E28.07464
G1 X-14.567 Y-15.415 E28.13711
G1 X-13.23 Y-15.61 E28.18205
G1 X13.147 Y-15.65 E29.05935
G1 X14.903 Y-15.288 E29.11898
G1 X16.459 Y-14.424 E29.17818
G1 X17.238 Y-13.813 E29.21111
G1 X18.177 Y-12.648 E29.26088
G1 X19.015 Y-10.967 E29.32335
G1 X19.21 Y-9.63 E29.36829
G1 X19.25 Y5.438 E29.86945
G1 X19.036 Y6.454 E29.90399
G1 X19.091 Y6.663 E29.91118
G1 X19.23 Y7.717 E29.94654
G1 X19.25 Y9.527 E30.00674
G1 X18.888 Y11.312 E30.06732
G1 X18.051 Y12.817 E30.12459
G1 X17.399 Y13.652 E30.15983
G1 X16.253 Y14.575 E30.20877
G1 X14.568 Y15.415 E30.27139
G1 X13.23 Y15.61 E30.31637
G1 X-13.147 Y15.65 E31.19367
G1 X-14.902 Y15.288 E31.25327
G1 X-16.405 Y14.459 E31.31036
G1 X-17.237 Y13.811 E31.34543
G1 X-18.179 Y12.643 E31.39534
G1 X-19.019 Y10.952 E31.45814
G1 X-19.233 Y9.334 E31.51243
G1 X-19.25 Y7.562 E31.57137
G1 X-19.04 Y6.549 E31.60577
G1 X-19.087 Y6.371 E31.6119
G1 X-19.21 Y5.53 E31.64017
G0 F3000 X-18.814 Y5.472
G1 F1800 X-18.85 Y-9.505 E32.13831
G1 X-18.508 Y-11.164 E32.19464
G1 X-17.709 Y-12.612 E32.24965
G1 X-17.127 Y-13.355 E32.28104
G1 X-16.028 Y-14.24 E32.32797
G1 X-14.447 Y-15.028 E32.38673
G1 X-13.172 Y-15.214 E32.42958
G1 X13.105 Y-15.25 E33.30356
G1 X14.764 Y-14.908 E33.3599
G1 X16.212 Y-14.109 E33.4149
G1 X16.955 Y-13.527 E33.4463
G1 X17.84 Y-12.428 E33.49323
G1 X18.628 Y-10.847 E33.55198
G1 X18.814 Y-9.572 E33.59484
G1 X18.85 Y5.399 E34.09278
G1 X18.625 Y6.468 E34.12911
G1 X18.694 Y6.715 E34.13764
G1 X18.833 Y7.769 E34.173
G1 X18.85 Y9.489 E34.23021
G1 X18.509 Y11.17 E34.28726
G1 X17.701 Y12.622 E34.34253
G1 X17.115 Y13.367 E34.37405
G1 X16.033 Y14.238 E34.42025
G1 X14.448 Y15.028 E34.47915
G1 X13.172 Y15.214 E34.52204
G1 X-13.105 Y15.25 E35.39602
G1 X-14.764 Y14.908 E35.45236
G1 X-16.212 Y14.109 E35.50736
G1 X-16.955 Y13.525 E35.5388
G1 X-17.84 Y12.427 E35.5857
G1 X-18.63 Y10.836 E35.64478
G1 X-18.836 Y9.281 E35.69695
G1 X-18.85 Y7.602 E35.7528
G1 X-18.628 Y6.533 E35.78911
G1 X-18.691 Y6.313 E35.79672
G1 X-18.814 Y5.472 E35.82499
G0 F3000 X-18.418 Y5.414
G1 F1800 X-18.45 Y-9.463 E36.31981
G1 X-18.128 Y-11.024 E36.37282
G1 X-17.394 Y-12.365 E36.42366
G1 X-16.838 Y-13.074 E36.45363
G1 X-15.812 Y-13.901 E36.49746
G1 X-14.327 Y-14.641 E36.55265
G1 X-13.114 Y-14.818 E36.59342
G1 X13.063 Y-14.85 E37.46407
G1 X14.624 Y-14.528 E37.51708
G1 X15.965 Y-13.794 E37.56793
G1 X16.674 Y-13.238 E37.5979
G1 X17.501 Y-12.212 E37.64173
G1 X18.241 Y-10.727 E37.69691
G1 X18.418 Y-9.514 E37.73768
G1 X18.45 Y5.36 E38.23239
G1 X18.213 Y6.486 E38.27067
G1 X18.297 Y6.767 E38.28042
G1 X18.436 Y7.821 E38.31578
G1 X18.45 Y9.45 E38.36996
G1 X18.129 Y11.029 E38.42355
G1 X17.351 Y12.428 E38.4768
G1 X16.83 Y13.082 E38.50461
G1 X15.815 Y13.899 E38.54794
G1 X14.327 Y14.641 E38.60325
G1 X13.114 Y14.818 E38.64402
G1 X-13.063 Y14.85 E39.51467
G1 X-14.624 Y14.528 E39.56768
G1 X-15.965 Y13.794 E39.61853
G1 X-16.674 Y13.237 E39.64852
G1 X-17.501 Y12.211 E39.69235
G1 X-18.242 Y10.719 E39.74775
G1 X-18.439 Y9.229 E39.79774
G1 X-18.45 Y7.644 E39.85046
G1 X-18.215 Y6.516 E39.88878
G1 X-18.295 Y6.255 E39.89786
G1 X-18.418 Y5.414 E39.92613
G0 F3000 X-18.022 Y5.356
G1 F1800 X-18.05 Y-9.421 E40.41762
G1 X-17.748 Y-10.887 E40.4674
G1 X-17.079 Y-12.118 E40.514
G1 X-16.549 Y-12.793 E40.54255
G1 X-15.596 Y-13.562 E40.58327
G1 X-14.207 Y-14.254 E40.63489
G1 X-13.056 Y-14.422 E40.67358
G1 X13.021 Y-14.45 E41.5409
G1 X14.487 Y-14.148 E41.59068
G1 X15.718 Y-13.479 E41.63728
G1 X16.393 Y-12.949 E41.66583
G1 X17.162 Y-11.996 E41.70656
G1 X17.854 Y-10.607 E41.75817
G1 X18.022 Y-9.456 E41.79686
G1 X18.05 Y5.321 E42.28835
G1 X17.8 Y6.508 E42.32869
G1 X17.9 Y6.819 E42.33956
G1 X18.039 Y7.873 E42.37492
G1 X18.05 Y9.411 E42.42607
G1 X17.749 Y10.89 E42.47627
G1 X17.038 Y12.179 E42.52523
G1 X16.546 Y12.796 E42.55148
G1 X15.595 Y13.562 E42.5921
G1 X14.207 Y14.254 E42.64368
G1 X13.056 Y14.422 E42.68237
G1 X-13.021 Y14.45 E43.54969
G1 X-14.487 Y14.148 E43.59948
G1 X-15.718 Y13.479 E43.64608
G1 X-16.393 Y12.949 E43.67462
G1 X-17.162 Y11.995 E43.71538
G1 X-17.854 Y10.602 E43.76711
G1 X-18.042 Y9.177 E43.81491
G1 X-18.05 Y7.686 E43.86451
G1 X-17.801 Y6.492 E43.90507
G1 X-17.899 Y6.197 E43.91541
G1 X-18.022 Y5.356 E43.94368
G0 F3000 X-17.626 Y5.298
G1 F1800 X-17.65 Y-9.379 E44.43184
G1 X-17.368 Y-10.749 E44.47836
G1 X-16.764 Y-11.871 E44.52074
G1 X-16.261 Y-12.512 E44.54784
G1 X-15.379 Y-13.223 E44.58552
G1 X-14.087 Y-13.867 E44.63354
G1 X-12.998 Y-14.026 E44.67014
G1 X12.979 Y-14.05 E45.53414
G1 X14.349 Y-13.768 E45.58066
G1 X15.471 Y-13.164 E45.62305
G1 X16.112 Y-12.661 E45.65015
G1 X16.823 Y-11.779 E45.68783
G1 X17.467 Y-10.487 E45.73584
G1 X17.626 Y-9.398 E45.77245
G1 X17.65 Y5.279 E46.2606
G1 X17.427 Y6.365 E46.29748
G1 X17.377 Y6.51 E46.30258
G1 X17.503 Y6.871 E46.3153
G1 X17.642 Y7.925 E46.35066
G1 X17.65 Y9.372 E46.39879
G1 X17.369 Y10.75 E46.44556
G1 X16.725 Y11.93 E46.49027
G1 X16.26 Y12.513 E46.51508
G1 X15.379 Y13.223 E46.55271
G1 X14.087 Y13.867 E46.60072
G1 X12.998 Y14.026 E46.63733
G1 X-12.979 Y14.05 E47.50133
G1 X-14.349 Y13.768 E47.54785
G1 X-15.471 Y13.164 E47.59023
G1 X-16.112 Y12.661 E47.61733
G1 X-16.823 Y11.779 E47.65501
G1 X-17.467 Y10.483 E47.70314
G1 X-17.642 Y9.175 E47.74704
G1 X-17.65 Y7.727 E47.7952
G1 X-17.427 Y6.635 E47.83227
G1 X-17.377 Y6.49 E47.83737
G1 X-17.503 Y6.139 E47.84977
G1 X-17.626 Y5.298 E47.87804
G0 F3000 X-17.23 Y5.24
G1 F1800 X-17.25 Y-9.337 E48.36287
G1 X-16.988 Y-10.612 E48.40617
G1 X-16.412 Y-11.681 E48.44656
G1 X-15.976 Y-12.228 E48.46982
G1 X-15.159 Y-12.886 E48.50471
G1 X-13.967 Y-13.48 E48.54901
G1 X-12.94 Y-13.63 E48.58353
G1 X12.937 Y-13.65 E49.4442
G1 X14.212 Y-13.388 E49.48749
G1 X15.281 Y-12.812 E49.52788
G1 X15.828 Y-12.376 E49.55115
G1 X16.486 Y-11.559 E49.58604
G1 X17.08 Y-10.367 E49.63033
G1 X17.23 Y-9.34 E49.66485
G1 X17.25 Y5.238 E50.14972
G1 X17.035 Y6.285 E50.18527
G1 X16.949 Y6.511 E50.19331
G1 X17.107 Y6.924 E50.20802
G1 X17.242 Y7.927 E50.24168
G1 X17.25 Y9.332 E50.28841
G1 X16.989 Y10.611 E50.33183
G1 X16.412 Y11.681 E50.37226
G1 X15.976 Y12.228 E50.39553
G1 X15.159 Y12.886 E50.43042
G1 X13.967 Y13.48 E50.47472
G1 X12.94 Y13.63 E50.50924
G1 X-12.937 Y13.65 E51.36991
G1 X-14.212 Y13.388 E51.4132
G1 X-15.281 Y12.812 E51.45359
G1 X-15.828 Y12.376 E51.47685
G1 X-16.486 Y11.559 E51.51175
G1 X-17.08 Y10.364 E51.55613
G1 X-17.242 Y9.173 E51.59611
G1 X-17.25 Y7.767 E51.64287
G1 X-17.035 Y6.715 E51.67859
G1 X-16.949 Y6.489 E51.68663
G1 X-17.107 Y6.081 E51.70118
G1 X-17.23 Y5.24 E51.72945
G0 F3000 X-16.834 Y5.182
G1 F1800 X-16.85 Y-9.296 E52.21099
G1 X-16.608 Y-10.474 E52.25099
G1 X-16.06 Y-11.491 E52.28941
G1 X-15.694 Y-11.941 E52.30871
G1 X-14.939 Y-12.549 E52.34095
G1 X-13.847 Y-13.093 E52.38152
G1 X-12.882 Y-13.234 E52.41396
G1 X12.896 Y-13.25 E53.27134
G1 X14.074 Y-13.008 E53.31134
G1 X15.091 Y-12.46 E53.34976
G1 X15.541 Y-12.094 E53.36906
G1 X16.149 Y-11.339 E53.4013
G1 X16.693 Y-10.247 E53.44187
G1 X16.834 Y-9.282 E53.47431
G1 X16.85 Y5.197 E53.95589
G1 X16.643 Y6.205 E53.99011
G1 X16.515 Y6.51 E54.00111
G1 X16.711 Y6.979 E54.01802
G1 X16.842 Y7.929 E54.04991
G1 X16.85 Y9.292 E54.09525
G1 X16.609 Y10.473 E54.13534
G1 X16.06 Y11.491 E54.17381
G1 X15.694 Y11.941 E54.1931
G1 X14.939 Y12.549 E54.22534
G1 X13.847 Y13.093 E54.26592
G1 X12.882 Y13.234 E54.29836
G1 X-12.896 Y13.25 E55.15574
G1 X-14.074 Y13.008 E55.19573
G1 X-15.091 Y12.46 E55.23416
G1 X-15.541 Y12.094 E55.25345
G1 X-16.149 Y11.339 E55.28569
G1 X-16.693 Y10.245 E55.32633
G1 X-16.842 Y9.171 E55.36239
G1 X-16.85 Y7.807 E55.40776
G1 X-16.643 Y6.795 E55.44212
G1 X-16.515 Y6.49 E55.45312
G1 X-16.711 Y6.023 E55.46996
G1 X-16.834 Y5.182 E55.49823
G0 F3000 X-16.438 Y5.124
G1 F1800 X-16.45 Y-9.255 E55.97648
G1 X-16.228 Y-10.336 E56.01318
G1 X-15.745 Y-11.244 E56.04739
G1 X-15.443 Y-11.629 E56.06367
G1 X-14.719 Y-12.212 E56.09458
G1 X-13.727 Y-12.706 E56.13144
G1 X-12.824 Y-12.838 E56.1618
G1 X12.855 Y-12.85 E57.01588
G1 X13.936 Y-12.628 E57.05259
G1 X14.844 Y-12.145 E57.08679
G1 X15.229 Y-11.843 E57.10307
G1 X15.812 Y-11.119 E57.13399
G1 X16.306 Y-10.127 E57.17084
G1 X16.438 Y-9.224 E57.2012
G1 X16.45 Y5.156 E57.67948
G1 X16.251 Y6.125 E57.71238
G1 X16.076 Y6.511 E57.72648
G1 X16.315 Y7.035 E57.74563
G1 X16.442 Y7.931 E57.77573
G1 X16.45 Y9.252 E57.81967
G1 X16.229 Y10.336 E57.85646
G1 X15.745 Y11.244 E57.89069
G1 X15.443 Y11.629 E57.90696
G1 X14.719 Y12.212 E57.93788
G1 X13.727 Y12.706 E57.97474
G1 X12.824 Y12.838 E58.00509
G1 X-12.855 Y12.85 E58.85918
