;FLAVOR:Marlin
;TIME:9865
;Filament used: 17.0961m
;Layer height: 0.2
;MINX:-75.5
;MINY:-75.5
;MINZ:0.2
;MAXX:75.5
;MAXY:75.5
;MAXZ:9
;TARGET_MACHINE.NAME:Unknown
;Generated with Cura_SteamEngine 5.6.0
M82 ;absolute extrusion mode
G21 ; millimeter units
G90 ; absolute coordinates
M82 ; E absolute
M140 S65
M104 S220.0
M190 S65
M109 S220.0
G28 ; home axis
M420 S1 ; enable mesh leveling
; Lower nozzle and move to start position
G1 Z150
G1 X-130 Y0 Z0.4 F3000
; Extrude about 40 mm by printing a 90 degree arc
G3 X0 Y-130 I130 Z0.3 E40 F2700
; Retract and move nozzle up
G92 E0
G1 E-1.5 F1800
G0 Z0.5
G1 E0 F300

G92 E0
G92 E0
G1 F2400 E-6.5
;LAYER_COUNT:45
;LAYER:0
M107
G1 F3000 Z0.5
G0 X-67.249 Y75.5 Z0.5
;TYPE:SKIRT
G1 F3000 Z0.2
G1 F2400 E0
G1 F1800 X-69.603 Y75.016 E0.07993
G1 X-71.79 Y73.764 E0.16375
G1 X-72.782 Y72.988 E0.20564
G1 X-74.055 Y71.407 E0.27315
G1 X-75.187 Y69.137 E0.35752
G1 X-75.436 Y67.428 E0.41496
G1 X-75.5 Y-67.249 E4.89433
G1 X-75.016 Y-69.603 E4.97427
G1 X-73.764 Y-71.79 E5.05808
G1 X-72.988 Y-72.782 E5.09997
G1 X-71.407 Y-74.055 E5.16748
G1 X-69.137 Y-75.187 E5.25185
G1 X-67.428 Y-75.436 E5.30929
G1 X67.249 Y-75.5 E9.78867
G1 X69.603 Y-75.016 E9.8686
G1 X71.79 Y-73.764 E9.95242
G1 X72.782 Y-72.988 E9.99431
G1 X74.055 Y-71.407 E10.06182
G1 X75.187 Y-69.137 E10.14619
G1 X75.436 Y-67.428 E10.20363
G1 X75.5 Y67.249 E14.683
G1 X75.016 Y69.603 E14.76294
G1 X73.764 Y71.79 E14.84675
G1 X72.988 Y72.782 E14.88864
G1 X71.407 Y74.055 E14.95615
G1 X69.137 Y75.187 E15.04052
G1 X67.428 Y75.436 E15.09796
G1 X-67.249 Y75.5 E19.57734
G0 F3000 X-67.207 Y75.1
G1 F1800 X-69.459 Y74.637 E19.65381
G1 X-71.543 Y73.449 E19.73359
G1 X-72.501 Y72.699 E19.77406
G1 X-73.716 Y71.191 E19.83847
G1 X-74.8 Y69.017 E19.91927
G1 X-75.04 Y67.37 E19.97462
G1 X-75.1 Y-67.207 E24.45067
G1 X-74.637 Y-69.459 E24.52714
G1 X-73.449 Y-71.543 E24.60693
G1 X-72.699 Y-72.501 E24.64739
G1 X-71.191 Y-73.716 E24.7118
G1 X-69.017 Y-74.8 E24.7926
G1 X-67.37 Y-75.04 E24.84796
G1 X67.207 Y-75.1 E29.32401
G1 X69.459 Y-74.637 E29.40048
G1 X71.543 Y-73.449 E29.48026
G1 X72.501 Y-72.699 E29.52073
G1 X73.716 Y-71.191 E29.58514
G1 X74.8 Y-69.017 E29.66594
G1 X75.04 Y-67.37 E29.7213
G1 X75.1 Y67.207 E34.19735
G1 X74.637 Y69.459 E34.27381
G1 X73.449 Y71.543 E34.3536
G1 X72.699 Y72.501 E34.39407
G1 X71.191 Y73.716 E34.45848
G1 X69.017 Y74.8 E34.53927
G1 X67.37 Y75.04 E34.59463
G1 X-67.207 Y75.1 E39.07068
G0 F3000 X-67.165 Y74.7
G1 F1800 X-69.317 Y74.257 E39.14376
G1 X-71.297 Y73.134 E39.21947
G1 X-72.216 Y72.415 E39.25828
G1 X-73.379 Y70.971 E39.31995
G1 X-74.413 Y68.897 E39.39702
G1 X-74.644 Y67.312 E39.4503
G1 X-74.7 Y-67.165 E43.92302
G1 X-74.257 Y-69.317 E43.9961
G1 X-73.134 Y-71.297 E44.07181
G1 X-72.415 Y-72.216 E44.11062
G1 X-70.971 Y-73.379 E44.17229
G1 X-68.897 Y-74.413 E44.24937
G1 X-67.312 Y-74.644 E44.30264
G1 X67.165 Y-74.7 E48.77536
G1 X69.317 Y-74.257 E48.84844
G1 X71.297 Y-73.134 E48.92415
G1 X72.216 Y-72.415 E48.96296
G1 X73.379 Y-70.971 E49.02463
G1 X74.413 Y-68.897 E49.10171
G1 X74.644 Y-67.312 E49.15498
G1 X74.7 Y67.165 E53.6277
G1 X74.257 Y69.317 E53.70078
G1 X73.134 Y71.297 E53.77649
G1 X72.415 Y72.216 E53.8153
G1 X70.971 Y73.379 E53.87697
G1 X68.897 Y74.413 E53.95405
G1 X67.312 Y74.644 E54.00732
G1 X-67.165 Y74.7 E58.48004
G0 F3000 X-67.123 Y74.3
G1 F1800 X-69.176 Y73.877 E58.54976
G1 X-71.05 Y72.819 E58.62134
G1 X-71.933 Y72.128 E58.65863
G1 X-73.042 Y70.751 E58.71744
G1 X-74.026 Y68.777 E58.7908
G1 X-74.248 Y67.254 E58.84199
G1 X-74.3 Y-67.123 E63.31139
G1 X-73.877 Y-69.176 E63.3811
G1 X-72.819 Y-71.05 E63.45268
G1 X-72.128 Y-71.933 E63.48997
G1 X-70.751 Y-73.042 E63.54878
G1 X-68.777 Y-74.026 E63.62214
G1 X-67.254 Y-74.248 E63.67333
G1 X67.123 Y-74.3 E68.14273
G1 X69.176 Y-73.877 E68.21244
G1 X71.05 Y-72.819 E68.28402
G1 X71.933 Y-72.128 E68.32131
G1 X73.042 Y-70.751 E68.38012
G1 X74.026 Y-68.777 E68.45348
G1 X74.248 Y-67.254 E68.50467
G1 X74.3 Y67.123 E72.97407
G1 X73.877 Y69.176 E73.04378
G1 X72.819 Y71.05 E73.11536
G1 X72.128 Y71.933 E73.15265
G1 X70.751 Y73.042 E73.21146
G1 X68.777 Y74.026 E73.28482
G1 X67.254 Y74.248 E73.33601
G1 X-67.123 Y74.3 E77.80541
G0 F3000 X-67.081 Y73.9
G1 F1800 X-69.034 Y73.498 E77.87173
G1 X-70.803 Y72.504 E77.93922
G1 X-71.65 Y71.841 E77.97499
G1 X-72.705 Y70.531 E78.03094
G1 X-73.639 Y68.657 E78.10058
G1 X-73.852 Y67.196 E78.14968
G1 X-73.9 Y-67.081 E82.61576
G1 X-73.498 Y-69.034 E82.68207
G1 X-72.504 Y-70.803 E82.74956
G1 X-71.841 Y-71.65 E82.78534
G1 X-70.531 Y-72.705 E82.84128
G1 X-68.657 Y-73.639 E82.91092
G1 X-67.196 Y-73.852 E82.96003
G1 X67.081 Y-73.9 E87.4261
G1 X69.034 Y-73.498 E87.49242
G1 X70.803 Y-72.504 E87.55991
G1 X71.65 Y-71.841 E87.59569
G1 X72.705 Y-70.531 E87.65163
G1 X73.639 Y-68.657 E87.72127
G1 X73.852 Y-67.196 E87.77038
G1 X73.9 Y67.081 E92.23645
G1 X73.498 Y69.034 E92.30277
G1 X72.504 Y70.803 E92.37026
G1 X71.841 Y71.65 E92.40603
G1 X70.531 Y72.705 E92.46198
G1 X68.657 Y73.639 E92.53162
G1 X67.196 Y73.852 E92.58073
G1 X-67.081 Y73.9 E97.0468
G0 F3000 X-67.039 Y73.5
G1 F1800 X-68.894 Y73.118 E97.10979
G1 X-70.556 Y72.189 E97.17312
G1 X-71.369 Y71.552 E97.20747
G1 X-72.366 Y70.315 E97.26031
G1 X-73.252 Y68.537 E97.32638
G1 X-73.456 Y67.138 E97.37341
G1 X-73.5 Y-67.039 E101.83615
G1 X-73.118 Y-68.894 E101.89915
G1 X-72.189 Y-70.556 E101.96247
G1 X-71.552 Y-71.369 E101.99683
G1 X-70.315 Y-72.366 E102.04967
G1 X-68.537 Y-73.252 E102.11574
G1 X-67.138 Y-73.456 E102.16276
G1 X67.039 Y-73.5 E106.62551
G1 X68.894 Y-73.118 E106.6885
G1 X70.556 Y-72.189 E106.75183
G1 X71.369 Y-71.552 E106.78618
G1 X72.366 Y-70.315 E106.83902
G1 X73.252 Y-68.537 E106.9051
G1 X73.456 Y-67.138 E106.95212
G1 X73.5 Y67.039 E111.41486
G1 X73.118 Y68.894 E111.47786
G1 X72.189 Y70.556 E111.54118
G1 X71.552 Y71.369 E111.57554
G1 X70.315 Y72.366 E111.62838
G1 X68.537 Y73.252 E111.69445
G1 X67.138 Y73.456 E111.74147
G1 X-67.039 Y73.5 E116.20422
G0 F3000 X-66.997 Y73.1
G1 F1800 X-68.753 Y72.738 E116.26385
G1 X-70.309 Y71.874 E116.32305
G1 X-71.088 Y71.263 E116.35598
G1 X-72.027 Y70.098 E116.40574
G1 X-72.865 Y68.417 E116.46822
G1 X-73.06 Y67.08 E116.51316
G1 X-73.1 Y-66.997 E120.97257
G1 X-72.738 Y-68.753 E121.03221
G1 X-71.874 Y-70.309 E121.0914
G1 X-71.263 Y-71.088 E121.12433
G1 X-70.098 Y-72.027 E121.1741
G1 X-68.417 Y-72.865 E121.23657
G1 X-67.08 Y-73.06 E121.28151
G1 X66.997 Y-73.1 E125.74093
G1 X68.753 Y-72.738 E125.80056
G1 X70.309 Y-71.874 E125.85976
G1 X71.088 Y-71.263 E125.89269
G1 X72.027 Y-70.098 E125.94246
G1 X72.865 Y-68.417 E126.00493
G1 X73.06 Y-67.08 E126.04987
G1 X73.1 Y66.997 E130.50929
G1 X72.738 Y68.753 E130.56892
G1 X71.874 Y70.309 E130.62812
G1 X71.263 Y71.088 E130.66104
G1 X70.098 Y72.027 E130.71081
G1 X68.417 Y72.865 E130.77328
G1 X67.08 Y73.06 E130.81822
G1 X-66.997 Y73.1 E135.27764
G0 F3000 X-66.955 Y72.7
G1 F1800 X-68.614 Y72.358 E135.33398
G1 X-70.062 Y71.559 E135.38899
G1 X-70.805 Y70.977 E135.42038
G1 X-71.69 Y69.878 E135.46731
G1 X-72.478 Y68.297 E135.52606
G1 X-72.664 Y67.022 E135.56892
G1 X-72.7 Y-66.955 E140.02501
G1 X-72.358 Y-68.614 E140.08135
G1 X-71.559 Y-70.062 E140.13636
G1 X-70.977 Y-70.805 E140.16775
G1 X-69.878 Y-71.69 E140.21468
G1 X-68.297 Y-72.478 E140.27343
G1 X-67.022 Y-72.664 E140.31629
G1 X66.955 Y-72.7 E144.77238
G1 X68.614 Y-72.358 E144.82872
G1 X70.062 Y-71.559 E144.88373
G1 X70.805 Y-70.977 E144.91512
G1 X71.69 Y-69.878 E144.96205
G1 X72.478 Y-68.297 E145.0208
G1 X72.664 Y-67.022 E145.06366
G1 X72.7 Y66.955 E149.51975
G1 X72.358 Y68.614 E149.57609
G1 X71.559 Y70.062 E149.6311
G1 X70.977 Y70.805 E149.66249
G1 X69.878 Y71.69 E149.70942
G1 X68.297 Y72.478 E149.76817
G1 X67.022 Y72.664 E149.81103
G1 X-66.955 Y72.7 E154.26712
G0 F3000 X-66.913 Y72.3
G1 F1800 X-68.474 Y71.978 E154.32014
G1 X-69.815 Y71.244 E154.37098
G1 X-70.524 Y70.688 E154.40095
G1 X-71.351 Y69.662 E154.44478
G1 X-72.091 Y68.177 E154.49996
G1 X-72.268 Y66.964 E154.54073
G1 X-72.3 Y-66.913 E158.9935
G1 X-71.978 Y-68.474 E159.04651
G1 X-71.244 Y-69.815 E159.09736
G1 X-70.688 Y-70.524 E159.12733
G1 X-69.662 Y-71.351 E159.17116
G1 X-68.177 Y-72.091 E159.22634
G1 X-66.964 Y-72.268 E159.26711
G1 X66.913 Y-72.3 E163.71988
G1 X68.474 Y-71.978 E163.77289
G1 X69.815 Y-71.244 E163.82374
G1 X70.524 Y-70.688 E163.85371
G1 X71.351 Y-69.662 E163.89754
G1 X72.091 Y-68.177 E163.95272
G1 X72.268 Y-66.964 E163.99349
G1 X72.3 Y66.913 E168.44626
G1 X71.978 Y68.474 E168.49927
G1 X71.244 Y69.815 E168.55012
G1 X70.688 Y70.524 E168.58009
G1 X69.662 Y71.351 E168.62392
G1 X68.177 Y72.091 E168.6791
G1 X66.964 Y72.268 E168.71987
G1 X-66.913 Y72.3 E173.17264
G0 F3000 X-66.871 Y71.9
G1 F1800 X-68.337 Y71.598 E173.22242
G1 X-69.568 Y70.929 E173.26902
G1 X-70.243 Y70.399 E173.29757
G1 X-71.012 Y69.446 E173.3383
G1 X-71.704 Y68.057 E173.38991
G1 X-71.872 Y66.906 E173.4286
G1 X-71.9 Y-66.871 E177.87804
G1 X-71.598 Y-68.337 E177.92782
G1 X-70.929 Y-69.568 E177.97442
G1 X-70.399 Y-70.243 E178.00296
G1 X-69.446 Y-71.012 E178.04369
G1 X-68.057 Y-71.704 E178.09531
G1 X-66.906 Y-71.872 E178.134
G1 X66.871 Y-71.9 E182.58344
G1 X68.337 Y-71.598 E182.63322
G1 X69.568 Y-70.929 E182.67982
G1 X70.243 Y-70.399 E182.70836
G1 X71.012 Y-69.446 E182.74909
G1 X71.704 Y-68.057 E182.80071
G1 X71.872 Y-66.906 E182.8394
G1 X71.9 Y66.871 E187.28884
G1 X71.598 Y68.337 E187.33862
G1 X70.929 Y69.568 E187.38522
G1 X70.399 Y70.243 E187.41376
G1 X69.446 Y71.012 E187.45449
G1 X68.057 Y71.704 E187.50611
G1 X66.906 Y71.872 E187.54479
G1 X-66.871 Y71.9 E191.99424
G1 F2400 E185.49424
G0 F3000 X66.848 Y71.476
G1 F2400 E191.99424
G1 F1800 X-66.829 Y71.5 E196.44035
G1 X-68.199 Y71.218 E196.48687
G1 X-69.321 Y70.614 E196.52925
G1 X-69.962 Y70.111 E196.55635
G1 X-70.673 Y69.229 E196.59403
G1 X-71.317 Y67.937 E196.64205
G1 X-71.476 Y66.848 E196.67865
G1 X-71.5 Y-66.829 E201.12477
G1 X-71.218 Y-68.199 E201.17129
G1 X-70.614 Y-69.321 E201.21367
G1 X-70.111 Y-69.962 E201.24077
G1 X-69.229 Y-70.673 E201.27845
G1 X-67.937 Y-71.317 E201.32647
G1 X-66.848 Y-71.476 E201.36307
G1 X66.829 Y-71.5 E205.80919
G1 X68.199 Y-71.218 E205.85571
G1 X69.321 Y-70.614 E205.89809
G1 X69.962 Y-70.111 E205.92519
G1 X70.673 Y-69.229 E205.96287
G1 X71.317 Y-67.937 E206.01088
G1 X71.476 Y-66.848 E206.04749
G1 X71.5 Y66.829 E210.4936
G1 X71.218 Y68.199 E210.54013
G1 X70.614 Y69.321 E210.58251
G1 X70.111 Y69.962 E210.60961
G1 X69.229 Y70.673 E210.64729
G1 X67.937 Y71.317 E210.6953
G1 X66.848 Y71.476 E210.73191
G0 F3000 X66.79 Y71.08
G1 F1800 X-66.787 Y71.1 E215.1747
G1 X-68.062 Y70.838 E215.21799
G1 X-69.131 Y70.262 E215.25838
G1 X-69.678 Y69.826 E215.28164
G1 X-70.336 Y69.009 E215.31653
G1 X-70.93 Y67.817 E215.36083
G1 X-71.08 Y66.79 E215.39535
G1 X-71.1 Y-66.787 E219.83814
G1 X-70.838 Y-68.062 E219.88143
G1 X-70.262 Y-69.131 E219.92182
G1 X-69.826 Y-69.678 E219.94508
G1 X-69.009 Y-70.336 E219.97997
G1 X-67.817 Y-70.93 E220.02427
G1 X-66.79 Y-71.08 E220.05879
G1 X66.787 Y-71.1 E224.50158
G1 X68.062 Y-70.838 E224.54487
G1 X69.131 Y-70.262 E224.58526
G1 X69.678 Y-69.826 E224.60853
G1 X70.336 Y-69.009 E224.64342
G1 X70.93 Y-67.817 E224.68771
G1 X71.08 Y-66.79 E224.72223
G1 X71.1 Y66.787 E229.16502
G1 X70.838 Y68.062 E229.20832
G1 X70.262 Y69.131 E229.2487
G1 X69.826 Y69.678 E229.27197
G1 X69.009 Y70.336 E229.30686
G1 X67.817 Y70.93 E229.35116
G1 X66.79 Y71.08 E229.38568
G0 F3000 X66.732 Y70.684
G1 F1800 X-66.746 Y70.7 E233.82517
G1 X-67.924 Y70.458 E233.86517
G1 X-68.941 Y69.91 E233.9036
G1 X-69.391 Y69.544 E233.92289
G1 X-69.999 Y68.789 E233.95513
G1 X-70.543 Y67.697 E233.99571
G1 X-70.684 Y66.732 E234.02814
G1 X-70.7 Y-66.746 E238.46764
G1 X-70.458 Y-67.924 E238.50764
G1 X-69.91 Y-68.941 E238.54606
G1 X-69.544 Y-69.391 E238.56535
G1 X-68.789 Y-69.999 E238.5976
G1 X-67.697 Y-70.543 E238.63817
G1 X-66.732 Y-70.684 E238.67061
G1 X66.746 Y-70.7 E243.11011
G1 X67.924 Y-70.458 E243.15011
G1 X68.941 Y-69.91 E243.18853
G1 X69.391 Y-69.544 E243.20782
G1 X69.999 Y-68.789 E243.24006
G1 X70.543 Y-67.697 E243.28064
G1 X70.684 Y-66.732 E243.31308
G1 X70.7 Y66.746 E247.75257
G1 X70.458 Y67.924 E247.79257
G1 X69.91 Y68.941 E247.831
G1 X69.544 Y69.391 E247.85029
G1 X68.789 Y69.999 E247.88253
G1 X67.697 Y70.543 E247.92311
G1 X66.732 Y70.684 E247.95554
G0 F3000 X66.674 Y70.288
G1 F1800 X-66.705 Y70.3 E252.39175
G1 X-67.786 Y70.078 E252.42845
G1 X-68.694 Y69.595 E252.46266
G1 X-69.079 Y69.293 E252.47893
G1 X-69.662 Y68.569 E252.50985
G1 X-70.156 Y67.577 E252.54671
G1 X-70.288 Y66.674 E252.57706
G1 X-70.3 Y-66.705 E257.01327
G1 X-70.078 Y-67.786 E257.04997
G1 X-69.595 Y-68.694 E257.08418
G1 X-69.293 Y-69.079 E257.10045
G1 X-68.569 Y-69.662 E257.13137
G1 X-67.577 Y-70.156 E257.16823
G1 X-66.674 Y-70.288 E257.19858
G1 X66.705 Y-70.3 E261.63479
G1 X67.786 Y-70.078 E261.67149
G1 X68.694 Y-69.595 E261.7057
G1 X69.079 Y-69.293 E261.72197
G1 X69.662 Y-68.569 E261.75289
G1 X70.156 Y-67.577 E261.78975
G1 X70.288 Y-66.674 E261.8201
G1 X70.3 Y66.705 E266.2563
G1 X70.078 Y67.786 E266.29301
G1 X69.595 Y68.694 E266.32722
G1 X69.293 Y69.079 E266.34349
G1 X68.569 Y69.662 E266.37441
G1 X67.577 Y70.156 E266.41127
G1 X66.674 Y70.288 E266.44162
G0 F3000 X66.616 Y69.892
G1 F1800 X-66.664 Y69.9 E270.87453
G1 X-67.65 Y69.698 E270.90801
G1 X-68.455 Y69.274 E270.93827
G1 X-68.767 Y69.042 E270.9512
G1 X-69.325 Y68.349 E270.98079
G1 X-69.769 Y67.457 E271.01393
G1 X-69.892 Y66.616 E271.0422
G1 X-69.9 Y-66.664 E275.47511
G1 X-69.698 Y-67.65 E275.50859
G1 X-69.274 Y-68.455 E275.53885
G1 X-69.042 Y-68.767 E275.55178
G1 X-68.349 Y-69.325 E275.58137
G1 X-67.457 Y-69.769 E275.61451
G1 X-66.616 Y-69.892 E275.64278
G1 X66.664 Y-69.9 E280.07569
G1 X67.65 Y-69.698 E280.10917
G1 X68.455 Y-69.274 E280.13943
G1 X68.767 Y-69.042 E280.15236
G1 X69.325 Y-68.349 E280.18195
G1 X69.769 Y-67.457 E280.21509
G1 X69.892 Y-66.616 E280.24336
G1 X69.9 Y66.664 E284.67627
G1 X69.698 Y67.65 E284.70975
G1 X69.274 Y68.455 E284.74001
G1 X69.042 Y68.767 E284.75294
G1 X68.349 Y69.325 E284.78253
G1 X67.457 Y69.769 E284.81568
G1 X66.616 Y69.892 E284.84394
G0 F3000 X66.558 Y69.496
G1 F1800 X-66.623 Y69.5 E289.27356
G1 X-67.513 Y69.318 E289.30378
G1 X-68.268 Y68.92 E289.33216
G1 X-68.488 Y68.751 E289.34139
G1 X-68.986 Y68.133 E289.36779
G1 X-69.382 Y67.337 E289.39736
G1 X-69.496 Y66.558 E289.42354
G1 X-69.5 Y-66.623 E293.85316
G1 X-69.318 Y-67.513 E293.88338
G1 X-68.92 Y-68.268 E293.91176
G1 X-68.751 Y-68.488 E293.92099
G1 X-68.133 Y-68.986 E293.94739
G1 X-67.337 Y-69.382 E293.97696
G1 X-66.558 Y-69.496 E294.00314
G1 X66.623 Y-69.5 E298.43276
G1 X67.513 Y-69.318 E298.46298
G1 X68.268 Y-68.92 E298.49136
G1 X68.488 Y-68.751 E298.50059
G1 X68.986 Y-68.133 E298.52699
G1 X69.382 Y-67.337 E298.55656
G1 X69.496 Y-66.558 E298.58274
G1 X69.5 Y66.623 E303.01236
G1 X69.318 Y67.513 E303.04258
G1 X68.92 Y68.268 E303.07096
G1 X68.751 Y68.488 E303.08019
G1 X68.133 Y68.986 E303.10659
G1 X67.337 Y69.382 E303.13616
G1 X66.558 Y69.496 E303.16234
G0 F3000 X66.5 Y69.1
G1 F1800 X67.217 Y68.995 E303.18645
G1 X67.917 Y68.647 E303.21245
G1 X68.463 Y68.207 E303.23577
G1 X68.566 Y68.082 E303.24116
G1 X68.937 Y67.378 E303.26762
G1 X69.1 Y66.582 E303.29465
G1 X69.1 Y-66.5 E307.72097
G1 X68.995 Y-67.217 E307.74508
G1 X68.647 Y-67.917 E307.77108
G1 X68.207 Y-68.463 E307.7944
G1 X68.082 Y-68.566 E307.79979
G1 X67.378 Y-68.937 E307.82625
G1 X66.582 Y-69.1 E307.85328
G1 X-66.5 Y-69.1 E312.2796
G1 X-67.217 Y-68.995 E312.3037
G1 X-67.917 Y-68.647 E312.32971
G1 X-68.463 Y-68.207 E312.35303
G1 X-68.566 Y-68.082 E312.35842
G1 X-68.937 Y-67.378 E312.38488
G1 X-69.1 Y-66.582 E312.41191
G1 X-69.1 Y66.5 E316.83823
G1 X-68.995 Y67.217 E316.86233
G1 X-68.647 Y67.917 E316.88834
